public/promo/brave.svg

<svg width="256" height="301" viewBox="0 0 256 301" fill="none" xmlns="http://www.w3.org/2000/svg">
<path d="M256 97.1L246.7 72L253.1 57.6C253.9 55.7 253.5 53.6 252.1 52.1L234.6 34.4C226.9 26.7 215.5 24 205.2 27.6L200.3 29.3L173.5 0.3L128.2 0H127.9L82.3 0.4L55.6 29.6L50.8 27.9C40.4 24.2 28.9 26.9 21.2 34.8L3.4 52.8C2.2 54 1.9 55.7 2.5 57.2L9.2 72.2L0 97.3L6 120L33.2 223.3C36.3 235.2 43.5 245.6 53.6 252.8C53.6 252.8 86.6 276.1 119.1 297.2C122 299.1 125 300.4 128.2 300.4C131.4 300.4 134.4 299.1 137.3 297.2C173.9 273.2 202.8 252.7 202.8 252.7C212.8 245.5 220 235.1 223.1 223.2L250.1 119.9L256 97.1Z" fill="#757575"/>
<path d="M134 184.801C132.8 184.301 131.5 183.901 131.1 183.901H129.5H127.9C127.5 183.901 126.2 184.301 125 184.801L112 190.201C110.8 190.701 108.8 191.601 107.6 192.201L88.0001 202.401C86.8001 203.001 86.7001 204.101 87.8001 204.901L105.1 217.101C106.2 217.901 107.9 219.201 108.9 220.101L116.6 226.701C117.6 227.601 119.2 229.001 120.2 229.901L127.6 236.501C128.6 237.401 130.2 237.401 131.2 236.501L138.8 229.901C139.8 229.001 141.4 227.601 142.4 226.701L150.1 220.001C151.1 219.101 152.8 217.801 153.9 217.001L171.2 204.701C172.3 203.901 172.2 202.801 171 202.201L151.4 192.201C150.2 191.601 148.2 190.701 147 190.201L134 184.801Z" fill="white"/>
<path d="M227.813 101.557C228.213 100.257 228.213 99.7571 228.213 99.7571C228.213 98.4571 228.113 96.2571 227.913 94.9571L226.913 92.0571C226.313 90.8571 225.313 88.9571 224.513 87.8571L213.213 71.1571C212.513 70.0571 211.213 68.3571 210.313 67.2571L195.713 48.9571C194.913 47.9571 194.113 47.0571 194.013 47.1571H193.813C193.813 47.1571 192.713 47.3571 191.413 47.5571L169.113 51.9571C167.813 52.2571 165.713 52.6571 164.413 52.8571L164.013 52.9571C162.713 53.1571 160.613 53.0571 159.313 52.6571L140.613 46.6571C139.313 46.2571 137.213 45.6571 136.013 45.3571C136.013 45.3571 132.213 44.4571 129.113 44.5571C126.013 44.5571 122.213 45.3571 122.213 45.3571C120.913 45.6571 118.813 46.2571 117.613 46.6571L98.9132 52.6571C97.6132 53.0571 95.5132 53.1571 94.2132 52.9571L93.8132 52.8571C92.5132 52.6571 90.4132 52.1571 89.1132 51.9571L66.6132 47.7571C65.3132 47.4571 64.2132 47.3571 64.2132 47.3571H64.0132C63.9132 47.3571 63.1132 48.1571 62.3132 49.1571L47.7132 67.4571C46.9132 68.4571 45.6132 70.2571 44.8132 71.3571L33.5132 88.0571C32.8132 89.1571 31.7132 91.0571 31.1132 92.2571L30.1132 95.1571C29.9132 96.4571 29.7132 98.6571 29.8132 99.9571C29.8132 99.9571 29.8132 100.357 30.2132 101.757C30.9132 104.157 32.6132 106.357 32.6132 106.357C33.4132 107.357 34.9132 109.057 35.8132 109.957L68.9132 145.157C69.8132 146.157 70.1132 147.957 69.6132 149.157L62.7132 165.457C62.2132 166.657 62.1132 168.657 62.6132 169.957L64.5132 175.057C66.1132 179.357 68.8132 183.157 72.4132 186.057L79.1132 191.457C80.1132 192.257 81.9132 192.557 83.1132 191.957L104.313 181.857C105.513 181.257 107.313 180.057 108.313 179.157L123.513 165.457C125.713 163.457 125.813 160.057 123.813 157.857L91.9132 136.357C90.8132 135.657 90.4132 134.057 91.0132 132.857L105.013 106.457C105.613 105.257 105.713 103.357 105.213 102.157L103.513 98.2571C103.013 97.0571 101.513 95.6571 100.313 95.1571L59.2132 79.7571C58.0132 79.2571 58.0132 78.7571 59.3132 78.6571L85.8132 76.1571C87.1132 76.0571 89.2132 76.2571 90.5132 76.5571L114.113 83.1571C115.413 83.5571 116.213 84.8571 116.013 86.1571L107.813 131.057C107.613 132.357 107.613 134.157 107.913 135.157C108.213 136.157 109.513 137.057 110.813 137.357L127.213 140.857C128.513 141.157 130.613 141.157 131.913 140.857L147.213 137.357C148.513 137.057 149.813 136.057 150.113 135.157C150.413 134.257 150.513 132.357 150.213 131.057L142.113 86.1571C141.913 84.8571 142.713 83.4571 144.013 83.1571L167.613 76.5571C168.913 76.1571 171.013 76.0571 172.313 76.1571L198.813 78.6571C200.113 78.7571 200.213 79.2571 198.913 79.7571L157.813 95.3571C156.613 95.8571 155.113 97.1571 154.613 98.4571L152.913 102.357C152.413 103.557 152.413 105.557 153.113 106.657L167.213 133.057C167.813 134.257 167.413 135.757 166.313 136.557L134.413 158.157C132.313 160.257 132.513 163.757 134.713 165.757L149.913 179.457C150.913 180.357 152.713 181.557 153.913 182.057L175.213 192.157C176.413 192.757 178.213 192.457 179.213 191.657L185.913 186.157C189.513 183.257 192.213 179.457 193.713 175.157L195.613 170.057C196.113 168.857 196.013 166.757 195.513 165.557L188.613 149.257C188.113 148.057 188.413 146.257 189.313 145.257L222.413 110.057C223.313 109.057 224.713 107.457 225.613 106.457C225.413 106.157 227.213 103.957 227.813 101.557Z" fill="white"/>
</svg>

<svg fill="none" height="301" viewBox="0 0 256 301" width="256" xmlns="http://www.w3.org/2000/svg"><path d="m256 97.1-9.3-25.1 6.4-14.4c.8-1.9.4-4-1-5.5l-17.5-17.7c-7.7-7.7-19.1-10.4-29.4-6.8l-4.9 1.7-26.8-29-45.3-.3h-.3l-45.6.4-26.7 29.2-4.8-1.7c-10.4-3.7-21.9-1-29.6 6.9l-17.8 18c-1.2 1.2-1.5 2.9-.9 4.4l6.7 15-9.2 25.1 6 22.7 27.2 103.3c3.1 11.9 10.3 22.3 20.4 29.5 0 0 33 23.3 65.5 44.4 2.9 1.9 5.9 3.2 9.1 3.2s6.2-1.3 9.1-3.2c36.6-24 65.5-44.5 65.5-44.5 10-7.2 17.2-17.6 20.3-29.5l27-103.3z" fill="#757575"/><g fill="#fff"><path d="m134 184.801c-1.2-.5-2.5-.9-2.9-.9h-1.6-1.6c-.4 0-1.7.4-2.9.9l-13 5.4c-1.2.5-3.2 1.4-4.4 2l-19.5999 10.2c-1.2.6-1.3 1.7-.2 2.5l17.2999 12.2c1.1.8 2.8 2.1 3.8 3l7.7 6.6c1 .9 2.6 2.3 3.6 3.2l7.4 6.6c1 .9 2.6.9 3.6 0l7.6-6.6c1-.9 2.6-2.3 3.6-3.2l7.7-6.7c1-.9 2.7-2.2 3.8-3l17.3-12.3c1.1-.8 1-1.9-.2-2.5l-19.6-10c-1.2-.6-3.2-1.5-4.4-2z"/><path d="m227.813 101.557c.4-1.3.4-1.7999.4-1.7999 0-1.3-.1-3.5-.3-4.8l-1-2.9c-.6-1.2-1.6-3.1-2.4-4.2l-11.3-16.7c-.7-1.1-2-2.8-2.9-3.9l-14.6-18.3c-.8-1-1.6-1.9-1.7-1.8h-.2s-1.1.2-2.4.4l-22.3 4.4c-1.3.3-3.4.7-4.7.9l-.4.1c-1.3.2-3.4.1-4.7-.3l-18.7-6c-1.3-.4-3.4-1-4.6-1.3 0 0-3.8-.9-6.9-.8-3.1 0-6.9.8-6.9.8-1.3.3-3.4.9-4.6 1.3l-18.6998 6c-1.3.4-3.4.5-4.7.3l-.4-.1c-1.3-.2-3.4-.7-4.7-.9l-22.5-4.2c-1.3-.3-2.4-.4-2.4-.4h-.2c-.1 0-.9.8-1.7 1.8l-14.6 18.3c-.8 1-2.1 2.8-2.9 3.9l-11.3 16.7c-.7 1.1-1.8 3-2.4 4.2l-1 2.9c-.2 1.3-.4 3.5-.3 4.8 0 0 0 .3999.4 1.7999.7 2.4 2.4 4.6 2.4 4.6.8 1 2.3 2.7 3.2 3.6l33.1 35.2c.9 1 1.2 2.8.7 4l-6.9 16.3c-.5 1.2-.6 3.2-.1 4.5l1.9 5.1c1.6 4.3 4.3 8.1 7.9 11l6.7 5.4c1 .8 2.8 1.1 4 .5l21.1998-10.1c1.2-.6 3-1.8 4-2.7l15.2-13.7c2.2-2 2.3-5.4.3-7.6l-31.8998-21.5c-1.1-.7-1.5-2.3-.9-3.5l13.9998-26.4c.6-1.2.7-3.1.2-4.3l-1.7-3.8999c-.5-1.2-2-2.6-3.2-3.1l-41.0998-15.4c-1.2-.5-1.2-1 .1-1.1l26.5-2.5c1.3-.1 3.4.1 4.7.4l23.5998 6.6c1.3.4 2.1 1.7 1.9 3l-8.2 44.8999c-.2 1.3-.2 3.1.1 4.1s1.6 1.9 2.9 2.2l16.4 3.5c1.3.3 3.4.3 4.7 0l15.3-3.5c1.3-.3 2.6-1.3 2.9-2.2s.4-2.8.1-4.1l-8.1-44.8999c-.2-1.3.6-2.7 1.9-3l23.6-6.6c1.3-.4 3.4-.5 4.7-.4l26.5 2.5c1.3.1 1.4.6.1 1.1l-41.1 15.6c-1.2.5-2.7 1.8-3.2 3.1l-1.7 3.8999c-.5 1.2-.5 3.2.2 4.3l14.1 26.4c.6 1.2.2 2.7-.9 3.5l-31.9 21.6c-2.1 2.1-1.9 5.6.3 7.6l15.2 13.7c1 .9 2.8 2.1 4 2.6l21.3 10.1c1.2.6 3 .3 4-.5l6.7-5.5c3.6-2.9 6.3-6.7 7.8-11l1.9-5.1c.5-1.2.4-3.3-.1-4.5l-6.9-16.3c-.5-1.2-.2-3 .7-4l33.1-35.2c.9-1 2.3-2.6 3.2-3.6-.2-.3 1.6-2.5 2.2-4.9z"/></g></svg>
